X:1
T:All Hallows (Wiseman), 8.10.10.4
T:All Hallows (Wiseman), 8.10.10.4
T:Frederick Luke Wiseman (1858-?)
T:Public Domain Courtesy of the Cyber Hymnal™
C:Frederick Luke Wiseman (1858-?)
Z:Public Domain
Z:Courtesy of the Cyber Hymnal™
%%score ( 1 2 ) ( 3 4 )
L:1/8
Q:1/4=106
M:none
K:C
V:1 treble 
V:2 treble 
V:3 bass 
V:4 bass 
V:1
 [Ec]2 [EB][EG] [EA]4 | [EA]2 [DG][B,E] [CF]4 | [CF]2 [A,C][B,D] [CE][DG][EA][EB] | %3
 [Ec]2 [^FA]2 d4 x | [^Ge]2 [EB][Ed] [Gd][Ac][FB][FA] | [EG]2 [DF]2 E4 | [Fc]2 [FA]2 [Fd]4 | %7
 [Ec]8 |] %8
V:2
 x8 | x8 | x8 | x4 (A2 G2) x | x8 | x4 E4 | x8 | x8 |] %8
V:3
 [C,G,]2 [C,G,][C,C] [C,C]4 | [C,C]2 [C,B,][C,G,] [C,A,]4 | %2
 [C,A,]2 [C,A,][C,_A,] [C,G,][C,F,][C,E,][B,,E,] | (E,C) [B,,C]2 C2 z x2 | %4
 [E,B,]2 [^G,B,][G,B,] [A,F][A,E][D,D][D,C] | [G,B,]2 [^G,B,]2 [A,C]4 | [D,A,]2 [A,C]2 (C2 B,2) | %7
 [C,C]8 |] %8
V:4
 x8 | x8 | x8 | A,,2 x G,,3 (B,2 F,) | x8 | x8 | x4 G,4 | x8 |] %8

